images/kafka.svg

<?xml version="1.0" encoding="UTF-8"?>
<!-- Uploaded to: SVG Repo, www.svgrepo.com, Generator: SVG Repo Mixer Tools -->
<svg width="800px" height="800px" viewBox="-78.5 0 413 413" version="1.1" xmlns="http://www.w3.org/2000/svg" xmlns:xlink="http://www.w3.org/1999/xlink" preserveAspectRatio="xMidYMid">
    <g>
        <path d="M87.9320692,36.714181 C83.382936,32.1427482 77.0364491,29.3196096 69.9808327,29.3196096 C62.9519759,29.3196096 56.6545483,32.1427482 52.1589343,36.714181 L52.0295962,36.714181 C47.4938428,41.2633143 44.6707042,47.614261 44.6707042,54.6431179 C44.6707042,61.6987343 47.4938428,67.9961618 52.0295962,72.5185355 L52.1589343,72.6211139 C56.6545483,77.1702472 62.9519759,79.9666261 69.9808327,79.9666261 C77.0364491,79.9666261 83.382936,77.1702472 87.9320692,72.6211139 L87.9989682,72.5185355 C92.5570213,67.9961618 95.3534002,61.6987343 95.3534002,54.6431179 C95.3534002,47.614261 92.5570213,41.2633143 87.9989682,36.714181 L87.9320692,36.714181 Z M69.9808327,383.353672 C77.0364491,383.353672 83.382936,380.481475 87.9320692,375.985861 L87.9989682,375.852063 C92.5570213,371.365368 95.3534002,365.014422 95.3534002,358.034624 C95.3534002,350.979008 92.5570213,344.654821 87.9989682,340.083388 L87.9320692,340.083388 C83.382936,335.458436 77.0364491,332.662057 69.9808327,332.662057 C62.9519759,332.662057 56.6545483,335.458436 52.1589343,340.083388 L52.0295962,340.083388 C47.4938428,344.654821 44.6707042,350.979008 44.6707042,358.034624 C44.6707042,365.014422 47.4938428,371.365368 52.0295962,375.852063 L52.1589343,375.985861 C56.6545483,380.481475 62.9519759,383.353672 69.9808327,383.353672 Z M207.953367,306.633879 C214.228495,304.988163 219.910452,300.960842 223.375821,294.873031 L223.844114,293.985504 C226.925929,288.209889 227.487881,281.546747 225.842165,275.641794 C224.183069,269.317607 220.106689,263.724849 214.032258,260.2238 L213.679923,259.987423 C207.76159,256.745051 201.018169,256.040381 194.82332,257.712857 C188.525893,259.282754 182.870696,263.488472 179.423166,269.527223 C175.931037,275.507996 175.199608,282.407514 176.872084,288.758461 C178.598078,295.002369 182.634319,300.648647 188.66861,304.176455 L188.70875,304.176455 C194.756421,307.650744 201.60688,308.279595 207.953367,306.633879 Z M95.9688712,180.386512 C89.3146489,173.750129 80.1450235,169.59347 69.9808327,169.59347 C59.8567813,169.59347 50.7094556,173.750129 44.0686131,180.386512 C37.4589901,187.000595 33.38261,196.147921 33.38261,206.285352 C33.38261,216.449543 37.4589901,225.623628 44.0686131,232.31353 C50.7094556,238.896393 59.8567813,243.026292 69.9808327,243.026292 C80.1450235,243.026292 89.3146489,238.896393 95.9688712,232.31353 C102.591874,225.623628 106.668254,216.449543 106.668254,206.285352 C106.668254,196.147921 102.591874,187.000595 95.9688712,180.386512 Z M81.3581257,137.223266 C96.0848295,139.64947 109.335295,146.705086 119.445967,156.896037 L119.526245,156.896037 C121.131822,158.514993 122.701719,160.267747 124.151198,162.042801 L149.434566,147.414216 C146.036096,137.142987 145.879999,126.403464 148.609478,116.341852 C152.217565,102.85501 160.959037,90.7819674 174.062325,83.2045386 L174.494938,82.9458624 C187.455508,75.6003502 202.191132,74.0839725 215.495117,77.6920595 C228.964119,81.2956866 241.11744,90.0772977 248.681489,103.171665 L248.681489,103.198425 C256.209859,116.212514 257.739616,131.157755 254.144909,144.591077 C250.563582,158.069 241.781971,170.222321 228.692063,177.746231 L225.240074,179.788881 L224.887739,179.788881 C212.779016,185.560036 199.461652,186.452023 187.232511,183.23641 C177.188739,180.569369 167.974514,174.976611 160.7628,167.006708 L135.519571,181.590694 C138.418528,189.270702 140.028564,197.55726 140.028564,206.285352 C140.028564,214.986684 138.418528,223.375821 135.519571,231.109347 L160.7628,245.639814 C167.974514,237.567333 177.188739,232.077153 187.232511,229.410112 C200.701514,225.726206 215.637835,227.296103 228.692063,234.900292 L229.526071,235.292766 L229.526071,235.346285 C242.138765,242.972773 250.603721,254.78714 254.144909,268.113424 C257.739616,281.466468 256.209859,296.416169 248.681489,309.457017 L248.226576,310.371304 L248.173057,310.291025 C240.609008,322.86358 228.692063,331.382055 215.535256,334.985683 C202.035034,338.54025 187.103173,337.023873 174.062325,329.526723 L174.062325,329.419684 C160.959037,321.842255 152.217565,309.742453 148.609478,296.286831 C145.879999,286.251978 146.036096,275.507996 149.434566,265.241226 L124.151198,250.65724 C122.701719,252.436754 121.131822,254.10923 119.526245,255.728186 L119.445967,255.804005 C109.335295,265.945896 96.0848295,273.001512 81.3581257,275.351898 L81.3581257,304.568929 C91.8523516,306.763217 101.258354,312.01702 108.630625,319.384832 L108.666305,319.46511 C118.54506,329.290346 124.65963,342.982345 124.65963,358.034624 C124.65963,373.037844 118.54506,386.645104 108.666305,396.523859 L108.630625,396.679957 C98.6849713,406.558712 85.0331117,412.673282 69.9808327,412.673282 C55.0088325,412.673282 41.3391332,406.558712 31.4202388,396.679957 L31.3845593,396.679957 L31.3845593,396.523859 C21.4924245,386.645104 15.3644745,373.037844 15.3644745,358.034624 C15.3644745,342.982345 21.4924245,329.290346 31.3845593,319.46511 L31.3845593,319.384832 L31.4202388,319.384832 C38.7791307,312.01702 48.1985125,306.763217 58.6659788,304.568929 L58.6659788,275.351898 C43.9258952,273.001512 30.7155691,265.945896 20.6182773,255.804005 L20.5112389,255.728186 C7.88962418,243.053052 0,225.623628 0,206.285352 C0,187.000595 7.88962418,169.571171 20.5112389,156.896037 L20.6182773,156.896037 C30.7155691,146.705086 43.9258952,139.64947 58.6659788,137.223266 L58.6659788,108.135573 C48.1985125,105.861006 38.7791307,100.611663 31.4202388,93.2929105 L31.3845593,93.2929105 L31.3845593,93.2126317 C21.4924245,83.2848174 15.3644745,69.6953969 15.3644745,54.6431179 C15.3644745,39.6666577 21.4924245,25.9478991 31.3845593,16.0691441 L31.4202388,16.0200848 C41.3391332,6.11457024 55.0088325,0 69.9808327,0 C85.0331117,0 98.6849713,6.11457024 108.630625,16.0200848 L108.630625,16.0691441 L108.666305,16.0691441 C118.54506,25.9478991 124.65963,39.6666577 124.65963,54.6431179 C124.65963,69.6953969 118.54506,83.2848174 108.666305,93.2126317 L108.630625,93.2929105 C101.258354,100.611663 91.8523516,105.861006 81.3581257,108.135573 L81.3581257,137.223266 Z M223.375821,117.83147 L223.166204,117.519275 C219.674075,111.636621 214.108077,107.716339 207.953367,106.017104 C201.60688,104.344628 194.756421,105.053758 188.66861,108.528047 L188.70875,108.528047 C182.634319,111.975576 178.571319,117.621853 176.872084,123.946041 C175.199608,130.216708 175.931037,137.142987 179.423166,143.177278 L179.539124,143.337836 C183.040173,149.291848 188.606171,153.28795 194.82332,154.906906 C201.071688,156.65966 208.033646,155.928231 214.032258,152.427182 L214.357833,152.271085 C220.262787,148.743276 224.196449,143.177278 225.842165,137.062708 C227.51464,130.76528 226.85011,123.865762 223.375821,117.83147 Z" fill="#1A1919">
</path>
    </g>
</svg>

<?xml version="1.0" encoding="UTF-8" standalone="no"?>
<!-- Uploaded to: SVG Repo, www.svgrepo.com, Generator: SVG Repo Mixer Tools -->

<svg
   width="590.96295"
   height="701.13031"
   viewBox="-78.5 0 305.08462 361.95852"
   version="1.1"
   preserveAspectRatio="xMidYMid"
   id="svg1"
   xmlns="http://www.w3.org/2000/svg"
   xmlns:svg="http://www.w3.org/2000/svg">
  <defs
     id="defs1" />
  <g
     id="layer1"
     transform="translate(-53.957687,-25.520736)">
    <rect
       style="fill:#ffffff;fill-rule:evenodd;stroke:#ffffff;stroke-width:0.517061"
       id="rect1"
       width="304.56757"
       height="361.44147"
       x="-24.283783"
       y="25.779266"
       ry="58.468468" />
    <g
       id="g1"
       transform="matrix(0.79600799,0,0,0.8,26.110969,41.430684)">
      <path
         d="M 87.932069,36.714181 C 83.382936,32.142748 77.036449,29.31961 69.980833,29.31961 c -7.028857,0 -13.326285,2.823138 -17.821899,7.394571 h -0.129338 c -4.535753,4.549133 -7.358892,10.90008 -7.358892,17.928937 0,7.055616 2.823139,13.353044 7.358892,17.875417 l 0.129338,0.102579 c 4.495614,4.549133 10.793042,7.345512 17.821899,7.345512 7.055616,0 13.402103,-2.796379 17.951236,-7.345512 l 0.0669,-0.102579 C 92.557021,67.996162 95.3534,61.698734 95.3534,54.643118 c 0,-7.028857 -2.796379,-13.379804 -7.354432,-17.928937 z M 69.980833,383.35367 c 7.055616,0 13.402103,-2.8722 17.951236,-7.36781 l 0.0669,-0.1338 c 4.558053,-4.48669 7.354432,-10.83764 7.354432,-17.81744 0,-7.05561 -2.796379,-13.3798 -7.354432,-17.95123 h -0.0669 c -4.549133,-4.62495 -10.89562,-7.42133 -17.951236,-7.42133 -7.028857,0 -13.326285,2.79638 -17.821899,7.42133 h -0.129338 c -4.535753,4.57143 -7.358892,10.89562 -7.358892,17.95123 0,6.9798 2.823139,13.33075 7.358892,17.81744 l 0.129338,0.1338 c 4.495614,4.49561 10.793042,7.36781 17.821899,7.36781 z M 207.95337,306.63388 c 6.27512,-1.64572 11.95708,-5.67304 15.42245,-11.76085 l 0.46829,-0.88753 c 3.08182,-5.77561 3.64377,-12.43875 1.99805,-18.34371 -1.65909,-6.32418 -5.73547,-11.91694 -11.8099,-15.41799 l -0.35234,-0.23638 c -5.91833,-3.24237 -12.66175,-3.94704 -18.8566,-2.27456 -6.29743,1.56989 -11.95262,5.77561 -15.40015,11.81436 -3.49213,5.98078 -4.22356,12.88029 -2.55109,19.23124 1.726,6.24391 5.76224,11.89019 11.79653,15.41799 h 0.0401 c 6.04767,3.47429 12.89813,4.10314 19.24462,2.45743 z M 95.968871,180.38651 c -6.654222,-6.63638 -15.823848,-10.79304 -25.988038,-10.79304 -10.124052,0 -19.271377,4.15666 -25.91222,10.79304 -6.609623,6.61408 -10.686003,15.76141 -10.686003,25.89884 0,10.16419 4.07638,19.33828 10.686003,26.02818 6.640843,6.58286 15.788168,10.71276 25.91222,10.71276 10.16419,0 19.333816,-4.1299 25.988038,-10.71276 6.622999,-6.6899 10.699379,-15.86399 10.699379,-26.02818 0,-10.13743 -4.07638,-19.28476 -10.699379,-25.89884 z M 81.358126,137.22327 c 14.726703,2.4262 27.977174,9.48182 38.087844,19.67277 h 0.0803 c 1.60557,1.61895 3.17547,3.37171 4.62495,5.14676 l 25.28337,-14.62858 c -3.39847,-10.27123 -3.55457,-21.01076 -0.82509,-31.07237 3.60808,-13.48684 12.34956,-25.559883 25.45284,-33.137311 l 0.43262,-0.258677 c 12.96057,-7.345512 27.69619,-8.861889 41.00018,-5.253803 13.469,3.603628 25.62232,12.385239 33.18637,25.479611 v 0.0268 c 7.52837,13.01408 9.05813,27.95932 5.46342,41.39265 -3.58133,13.47792 -12.36294,25.63124 -25.45285,33.15515 l -3.45199,2.04265 h -0.35233 c -12.10872,5.77116 -25.42609,6.66314 -37.65523,3.44753 -10.04377,-2.66704 -19.258,-8.2598 -26.46971,-16.2297 l -25.24323,14.58398 c 2.89896,7.68001 4.50899,15.96657 4.50899,24.69466 0,8.70133 -1.61003,17.09047 -4.50899,24.824 l 25.24323,14.53046 c 7.21171,-8.07248 16.42594,-13.56266 26.46971,-16.2297 13.469,-3.6839 28.40532,-2.11401 41.45955,5.49018 l 0.83401,0.39248 v 0.0535 c 12.61269,7.62649 21.07765,19.44086 24.61884,32.76714 3.59471,13.35305 2.06495,28.30275 -5.46342,41.3436 l -0.45491,0.91428 -0.0535,-0.0803 c -7.56405,12.57256 -19.481,21.09103 -32.6378,24.69466 -13.50023,3.55457 -28.43209,2.03819 -41.47294,-5.45896 v -0.10704 c -13.10332,-7.57743 -21.8448,-19.67724 -25.45288,-33.13286 -2.72948,-10.03485 -2.57338,-20.77883 0.82509,-31.0456 L 124.1512,250.65724 c -1.44948,1.77951 -3.01938,3.45199 -4.62495,5.07095 l -0.0803,0.0758 c -10.11067,10.1419 -23.361141,17.19751 -38.087844,19.5479 v 29.21703 c 10.494226,2.19429 19.900224,7.44809 27.272494,14.8159 l 0.0357,0.0803 c 9.87876,9.82524 15.99333,23.51723 15.99333,38.56951 0,15.00322 -6.11457,28.61048 -15.99333,38.48924 l -0.0357,0.1561 c -9.945649,9.87875 -23.597508,15.99332 -38.649787,15.99332 -14.972001,0 -28.6417,-6.11457 -38.560594,-15.99332 h -0.03568 v -0.1561 c -9.892135,-9.87876 -16.020084,-23.48602 -16.020084,-38.48924 0,-15.05228 6.127949,-28.74427 16.020084,-38.56951 v -0.0803 h 0.03568 c 7.358892,-7.36781 16.778273,-12.62161 27.24574,-14.8159 V 275.3519 c -14.740084,-2.35039 -27.95041,-9.406 -38.047702,-19.5479 l -0.107038,-0.0758 C 7.8896242,243.05305 0,225.62363 0,206.28535 0,187.00059 7.8896242,169.57117 20.511239,156.89604 h 0.107038 c 10.097292,-10.19095 23.307618,-17.24657 38.047702,-19.67277 v -29.0877 C 48.198512,105.86101 38.779131,100.61166 31.420239,93.292911 h -0.03568 v -0.08028 C 21.492424,83.284817 15.364475,69.695397 15.364475,54.643118 c 0,-14.97646 6.127949,-28.695219 16.020084,-38.573974 l 0.03568,-0.04906 C 41.339133,6.1145702 55.008832,0 69.980833,0 85.033112,0 98.684971,6.1145702 108.63062,16.020085 v 0.04906 h 0.0357 c 9.87876,9.878755 15.99333,23.597514 15.99333,38.573974 0,15.052279 -6.11457,28.641699 -15.99333,38.569514 l -0.0357,0.08028 c -7.37227,7.318747 -16.778268,12.568097 -27.272494,14.842657 z m 142.017694,-19.3918 -0.20962,-0.3122 c -3.49213,-5.88265 -9.05812,-9.80293 -15.21283,-11.50217 -6.34649,-1.67247 -13.19695,-0.96334 -19.28476,2.51095 h 0.0401 c -6.07443,3.44753 -10.13743,9.0938 -11.83667,15.41799 -1.67247,6.27067 -0.94104,13.19695 2.55109,19.23124 l 0.11595,0.16056 c 3.50105,5.95401 9.06705,9.95011 15.2842,11.56907 6.24837,1.75275 13.21033,1.02132 19.20894,-2.47973 l 0.32557,-0.1561 c 5.90496,-3.5278 9.83862,-9.0938 11.48433,-15.20837 1.67248,-6.29743 1.00795,-13.19695 -2.46634,-19.23124 z"
         fill="#1a1919"
         id="path1" />
    </g>
  </g>
</svg>
